web/images/icon-play.svg

<svg height="315" viewBox="0 0 315 315" width="315" xmlns="http://www.w3.org/2000/svg"><path d="m293.002 78.53c-43.356-75.095-139.384-100.826-214.473-57.462-75.095 43.35-100.827 139.374-57.463 214.466 43.35 75.095 139.375 100.83 214.465 57.47 75.096-43.365 100.84-139.384 57.471-214.474zm-73.168 187.271c-60.067 34.692-136.894 14.106-171.576-45.973-34.69-60.067-14.097-136.893 45.972-171.568 60.071-34.69 136.894-14.106 171.578 45.971 34.685 60.076 14.098 136.886-45.974 171.57zm-6.279-115.149-82.214-47.949c-7.492-4.374-13.535-.877-13.493 7.789l.421 95.174c.038 8.664 6.155 12.191 13.669 7.851l81.585-47.103c7.506-4.332 7.522-11.388.032-15.762z" fill="#2cd6ca"/></svg>

<?xml version="1.0" encoding="UTF-8"?>
<svg width="315px" height="315px" viewBox="0 0 315 315" version="1.1" xmlns="http://www.w3.org/2000/svg" xmlns:xlink="http://www.w3.org/1999/xlink">
    <!-- Generator: Sketch 51.3 (57544) - http://www.bohemiancoding.com/sketch -->
    <title>play-button</title>
    <desc>Created with Sketch.</desc>
    <defs></defs>
    <g id="Page-1" stroke="none" stroke-width="1" fill="none" fill-rule="evenodd">
        <g id="play-button" fill="#2CD6CA" fill-rule="nonzero">
            <path d="M293.002,78.53 C249.646,3.435 153.618,-22.296 78.529,21.068 C3.434,64.418 -22.298,160.442 21.066,235.534 C64.416,310.629 160.441,336.364 235.531,293.004 C310.627,249.639 336.371,153.62 293.002,78.53 Z M219.834,265.801 C159.767,300.493 82.94,279.907 48.258,219.828 C13.568,159.761 34.161,82.935 94.23,48.26 C154.301,13.57 231.124,34.154 265.808,94.231 C300.493,154.307 279.906,231.117 219.834,265.801 Z M213.555,150.652 L131.341,102.703 C123.849,98.329 117.806,101.826 117.848,110.492 L118.269,205.666 C118.307,214.33 124.424,217.857 131.938,213.517 L213.523,166.414 C221.029,162.082 221.045,155.026 213.555,150.652 Z" id="Shape"></path>
        </g>
    </g>
</svg>
